source/images/icons/icon-editorial/horloge.svg

<?xml version="1.0" encoding="UTF-8"?>
<svg width="80px" height="80px" viewBox="0 0 80 80" version="1.1" xmlns="http://www.w3.org/2000/svg" xmlns:xlink="http://www.w3.org/1999/xlink">
    <!-- Generator: Sketch 55.2 (78181) - https://sketchapp.com -->
    <title>Illustrative Icons/Horloge</title>
    <desc>Created with Sketch.</desc>
    <g id="Illustrative-Icons/Horloge" stroke="none" stroke-width="1" fill="none" fill-rule="evenodd">
        <path d="M40.3333334,7 C21.9533334,7 7,21.9533334 7,40.3333334 C7,58.7133334 21.9533334,73.6666667 40.3333334,73.6666667 C58.7133334,73.6666667 73.6666667,58.7133334 73.6666667,40.3333334 C73.6666667,21.9533334 58.7133334,7 40.3333334,7 Z M40.3333333,70.3333333 C23.7916667,70.3333333 10.3333333,56.8750001 10.3333333,40.3333333 C10.3333333,23.7916667 23.7916667,10.3333333 40.3333333,10.3333333 C56.8750001,10.3333333 70.3333333,23.7916667 70.3333333,40.3333333 C70.3333333,56.8750001 56.8750001,70.3333333 40.3333333,70.3333333 Z M49.1666667,33.8166667 L42,40.6 L42,21.89 C42,20.9695254 41.253808,20.2233333 40.3333334,20.2233333 C39.4128588,20.2233333 38.6666667,20.9695254 38.6666667,21.89 L38.6666667,44.4716667 C38.6666667,44.4883334 38.6666667,44.5066667 38.6666667,44.5233334 C38.6666667,44.54 38.6666667,44.5833334 38.6666667,44.615 C38.6666667,44.6466667 38.6666667,44.6666667 38.675,44.6916667 C38.6833334,44.7166667 38.675,44.7483334 38.6883334,44.775 C38.7016667,44.8016667 38.7,44.8283334 38.705,44.855 C38.71,44.8816667 38.7183334,44.9083334 38.725,44.9333334 C38.7316667,44.9583334 38.7416667,44.985 38.75,45.0116667 C38.7583334,45.0383334 38.7683334,45.0633334 38.7783334,45.0883334 C38.7883334,45.1133334 38.7983334,45.1383334 38.81,45.1616667 C38.8216667,45.185 38.8333334,45.2116667 38.8466667,45.2366667 L38.885,45.3066667 L38.9283334,45.3766667 L38.975,45.445 L39.0233334,45.5083334 L39.0816667,45.5766667 L39.1166667,45.6166667 L39.1333334,45.6316667 C39.1566667,45.655 39.18,45.6783334 39.205,45.7 L39.2566667,45.7483334 C39.28,45.7683334 39.3066667,45.7866667 39.3316667,45.805 L39.39,45.8483334 C39.4166667,45.8666667 39.4433334,45.8816667 39.4716667,45.8983334 L39.5316667,45.935 C39.5794445,45.9616667 39.6288889,45.9855556 39.68,46.0066667 L39.69,46.0066667 C39.7383334,46.0266667 39.7866667,46.045 39.8366667,46.06 L39.8616667,46.06 C39.9066667,46.0733334 39.9516667,46.085 39.9983334,46.095 L40.0433334,46.095 C40.0833334,46.095 40.1216667,46.1083334 40.1616667,46.1133334 C40.2016667,46.1183334 40.2633334,46.1133334 40.3133334,46.1133334 L40.3333334,46.1133334 C40.3866667,46.1133334 40.4416667,46.1133334 40.5,46.1133334 L40.5616667,46.105 L40.6583334,46.09 L40.73,46.0733334 L40.8133334,46.0516667 L40.885,46.0283334 L40.965,45.9983334 L41.0316667,45.9683334 L41.11,45.93 L41.175,45.8933334 L41.2483334,45.8483334 L41.3116667,45.8033334 L41.3766667,45.755 L41.44,45.7 L41.4816667,45.6633334 L51.4566667,36.2166667 C52.0157308,35.5669618 51.9908544,34.5991514 51.399151,33.9790255 C50.8074475,33.3588996 49.8418676,33.2886772 49.1666667,33.8166667 L49.1666667,33.8166667 Z M40.3333334,17 C41.253808,17 42,16.2538079 42,15.3333333 C42,14.4128588 41.253808,13.6666667 40.3333334,13.6666667 C39.4128588,13.6666667 38.6666667,14.4128588 38.6666667,15.3333333 C38.6666667,16.2538079 39.4128588,17 40.3333334,17 Z" id="Shape-color" fill="#ADB5BD"></path>
    </g>
</svg>

<svg width="80" height="80">
    <title>
        Illustrative Icons/Horloge
    </title>
    <path d="M40.333 7C21.953 7 7 21.953 7 40.333s14.953 33.334 33.333 33.334 33.334-14.954 33.334-33.334C73.667 21.953 58.713 7 40.333 7zm0 63.333c-16.541 0-30-13.458-30-30 0-16.541 13.459-30 30-30 16.542 0 30 13.459 30 30 0 16.542-13.458 30-30 30zm8.834-36.516L42 40.6V21.89a1.667 1.667 0 1 0-3.333 0V44.615c0 .032 0 .052.008.077s0 .056.013.083c.014.027.012.053.017.08.005.027.013.053.02.078l.025.079c.008.026.018.051.028.076.01.025.02.05.032.074.012.023.023.05.037.075l.038.07.043.07.047.068.048.063.059.069.035.04.016.015c.024.023.047.046.072.068l.052.048c.023.02.05.039.075.057l.058.043c.027.019.053.034.082.05l.06.037c.047.027.097.05.148.072h.01c.048.02.097.038.147.053h.025c.045.013.09.025.136.035h.045c.04 0 .079.013.119.018.04.005.101 0 .151 0h.187l.062-.008.096-.015.072-.017.083-.021.072-.024.08-.03.067-.03.078-.038.065-.037.073-.045.064-.045.065-.048.063-.055.042-.037 9.975-9.446a1.667 1.667 0 0 0-2.29-2.4zM40.333 17a1.667 1.667 0 1 0 0-3.333 1.667 1.667 0 0 0 0 3.333z" fill="#ADB5BD" fill-rule="evenodd"/>
</svg>
